!!!COM: Bach, Johann Sebastian
!!!OPR: Joh. Seb. Bachs vierstimmige Choralgesänge
!!!XEN: Four-part Chorales
!!!OTL: 94. Ich dank' dir, lieber Herre
!!!SCT: BWV 347
!!!SCA: Thematisch-systematisches Verzeichnis der musikalischen Werke Johann Sebastian Bach: Bach-Werke-Verzeichnis (Schmieder)
!!!YOR: Bach Gesellschaft Edition xxxix
!!!ENC: Steven Rasmussen
!!!CDT: 1685/3//-1750/7/28/
!!!OCY: Deutschland
!!!YEC: Copyright (c) 1994, 2000 Center for Computer Assisted Research in the Humanities
!!!YEM: Rights to all derivative editions reserved
!!!YEN: United States of America
**kern	**kern	**kern	**kern	**silbe
*I:[BASSO]	*I:[TENORE]	*I:[ALTO]	*I:[SOPRANO]	*I:[SOPRANO]
*>[A,A,B]	*>[A,A,B]	*>[A,A,B]	*>[A,A,B]	*
*>A	*>A	*>A	*>A	*
*clefF4	*clefGv2	*clefG2	*clefG2	*
*k[f#c#g#]	*k[f#c#g#]	*k[f#c#g#]	*k[f#c#g#]	*
*A:	*A:	*A:	*A:	*
*M4/4	*M4/4	*M4/4	*M4/4	*
8AL	4c#	4e	4a	Ichin
8G#J	.	.	.	.
=1	=1	=1	=1	=1
4F#	4c#	4f#	4a	dank'die-
4C#	8c#L	4e	4a	dir,-ser
.	8BJ	.	.	.
4D	8AL	4f#	4a	lie-Nacht
.	8G#J	.	.	.
4D#	4F#	4f#	4b	-berGe-
=2	=2	=2	=2	=2
4E	4.B	4e	4gn	Her--fÃ¤h-
4BB	.	4d#	4f#	.
.	8A	.	.	.
4EE;	4G#;	4B;	4e;	-re,-re,
4E	4e	4g#	4b	dassda-
=3	=3	=3	=3	=3
4A	4e	4a	4cc#	du-rin
4B	4d#	8g#L	4b	michich
.	.	8f#J	.	.
4c#	(2c#	[2e	4a	hastlag
8BL	.	.	8g#L	.
8AJ	.	.	8f#J	.
=4	=4	=4	=4	=4
4B	4.B)	4e]	4g#	.
4BB	.	4d#	4f#	be-so
.	8A	.	.	.
4E;	4G#;	4B;	4e;	-wahrthart
=:|!	=:|!	=:|!	=:|!	=:|!
*>B	*>B	*>B	*>B	*
4C#	4G#	8cc#L	4ee	mit
.	.	8bJ	.	.
=5	=5	=5	=5	=5
8F#L	8AL	4a	4dd	Fin-
8G#J	8BJ	.	.	.
4A	8c#L	4a	4cc#	-ster-
.	8dJ	.	.	.
4E	4e	4g#	4b	-niss
8C#L	4e	8aL	4a	um-
8AAJ	.	8gnJ	.	.
=6	=6	=6	=6	=6
4D	4d	8f#L	8aL	-fan-
.	.	8g#J	8bJ	.
8C#L	4e	4a	4cc#	.
8DJ	.	.	.	.
4E;	4e;	4g#;	4b;	-gen,
4C#	4e	4a#	4cc#	da-
=7	=7	=7	=7	=7
4BB	(8f#	8bL	4dd	-zu
.	4B)	8aJ	.	.
4C#	.	4gn	4cc#	in
.	8A#	.	.	.
8DL	4B	8f#L	4b	gro-
8GnJ	.	8eJ	.	.
4F#	4c#	4f#	4a#	-sser
=8	=8	=8	=8	=8
2.BB;	2.d;	2.f#;	2.b;	Not,
4C#	4G#	8eL	4e	da-
.	.	8dJ	.	.
=9	=9	=9	=9	=9
4F#	4A	4c#	4a	-raus
8EL	8G#L	4d	4b	ich
8DJ	8F#J	.	.	.
4C#	8EL	4e	4cc#	bin
.	8eJ	.	.	.
4BB	4d	8f#L	4dd	ent-
.	.	8g#J	.	.
=10	=10	=10	=10	=10
8AAL	8c#L	2a	4ee	-gan-
8BB	8d	.	.	.
8C#	8e	.	8ddL	.
8DJ	8f#J	.	8cc#J	.
4E;	4g#;	4e;	4b;	-gen,
4BB	4f#	4b	4dd	halfst
=11	=11	=11	=11	=11
8F#L	8f#L	8aL	4cc#	du
8G#J	8eJ	8g#J	.	.
4A	8dL	4f#	4b	mir,
.	8c#J	.	.	.
8G#L	4B	4e	4.ee	Her-
8EJ	.	.	.	.
[4A	8c#L	8f#L	.	.
.	8dJ	8g#J	8dd	.
=12	=12	=12	=12	=12
8AL]	4.e	2.a	8cc#L	.
8G#J	.	.	8b	.
4F#	.	.	8a	.
.	8d	.	8bJ	.
8EL	8c#L	.	4cc#	.
8DJ	8f#J	.	.	.
4E	8BL	4g#	4b	-re
.	16eL	.	.	.
.	16dJJ	.	.	.
=13	=13	=13	=13	=13
2.AA;	2.c#;	2.e;	2.a;	Gott!
==|!	==|!	==|!	==|!	==|!
*-	*-	*-	*-	*-
!!!RWG: Key is interpreted using the Humdrum key tool.
!!!URL-pdf: https://s9.imslp.org/files/imglnks/usimg/6/6b/IMSLP24489-PMLP09471-CCARH_Bach_Chorales.pdf#page=66 Musedata edition
!!!URL-pdf: https://s9.imslp.org/files/imglnks/usimg/7/7a/IMSLP04155-Bach_-_BGA_253-438.pdf#page=50 	Bach-Gesellschaft Ausgabe, Band 39 (pp.175-276) Leipzig: Breitkopf und Härtel, 1892. Plate B.W. XXXIX.
!!!END: 1994/06/27
!!!EMD: Converted from MuseData to Humdrum Dec 19, 2000, by Andreas Kornstaedt using muse2kern.
!!!EED: Craig Stuart Sapp
!!!EEV: 2024/03/31
!!!ONB: Some non-unicode characters
!!!filter-keyboard: satb2gs
